trunk/public/assets/images/icons/grey/file-pic.svg

<svg width="16" height="16" xmlns="http://www.w3.org/2000/svg" viewBox="0 0 16 16" shape-rendering="geometricPrecision" fill="#6e6e6e"><path d="M10.055 14.302l2.54-2.338h-2.54"/><path d="M2.595 1.016v13.97h6.008v-4.47h4.802v-9.5H2.595zm9.44 8.027h-4.79v4.6H3.916V2.32h8.116v6.725z"/><path d="M7.33 3.632v-.67H5.993v.67h-.67v3.345h5.354V3.632H7.33zm.335 2.676c-.554 0-1.003-.448-1.003-1.003 0-.555.45-1.004 1.003-1.004s1.003.45 1.003 1.005c0 .554-.45 1.003-1.003 1.003zm2.342-1.338h-.67V4.3h.67v.67z"/></svg>

<?xml version="1.0"?><!DOCTYPE svg PUBLIC "-//W3C//DTD SVG 1.1//EN" "http://www.w3.org/Graphics/SVG/1.1/DTD/svg11.dtd"><svg width="16px" height="16px" xmlns="http://www.w3.org/2000/svg" viewBox="0 0 16 16" shape-rendering="geometricPrecision" fill="#6e6e6e"><g><g><g><polygon points="10.055,14.302 12.595,11.964 10.055,11.964"/><path d="M2.595,1.016v13.969h6.008v-4.468h4.802V1.016H2.595z M12.034,9.043h-4.79v4.601H3.917V2.318h8.116V9.043z"/></g></g><path d="M7.331,3.632V2.963H5.992v0.669H5.323v3.345h5.353V3.632H7.331z M7.665,6.308 c-0.554,0-1.003-0.448-1.003-1.003c0-0.555,0.449-1.004,1.003-1.004S8.668,4.75,8.668,5.305C8.668,5.859,8.219,6.308,7.665,6.308z M10.007,4.97H9.337V4.301h0.669V4.97z"/></g></svg>
